X: 58
T: He Comes to Attack
C: Teton Sioux band 1911-1914
N: Derived from sioux058.krn
O: South Dakota, U.S.A.
N: Teton Sioux Music by Frances Densmore, 1918
Z: transcribed to **kern format by Craig Sapp
L: 1/8
M: 2/4
Q: 1/4=58
K: Eb clef=bass
%%linebreak <none>
C CC2 [I:setbarnb 2]| 
C C C/ F,3/ | 
C< F, F,/ E,3/ | 
A,< F, A,/ E,3/ | 
E,< C, C, C, ||  
[M:3/4]C,2C,2C,2 ||  
[M:2/4]A,< F,F,2 | 
A,< F, F,/ E,3/ ||  
[M:3/4]E,< C, C, E,/ E,/ E,/ C,3/ | 
C,2C, E,/ C,/C,2 | 
C,2C,2C, C, ||  
[M:2/4]G,2G,3/ G,/ | 
C> CC2 | 
(C< G,) G,3/ C/ | 
(C< G,) (C/ F,3/) | 
(F,< E,) (E,/ C,3/) | 
C,2C,2 | 
C,2C,/ C,3/ ||  
[M:3/4]C,2C,2C,3/ C/ ||  
[M:2/4](C< G,) (C/ F,3/) | 
(G,< E,) E, E,/ E,/ | 
(3(E, C,) C, C, (E,/ C,/) | 
C,2C,2 | 
C,2C,2 |]  



